X:487
T:Donegal Lass, The
S:Drew Mitchell, Edinburgh
Z:Nigel Gatherer
R:jig
M:6/8
L:1/8
K:A mixolydian
Ace aed | cdB A3  | GBd G3  | FAd F3  |
Ace aed | cdB A2a | aed cdB | ABG A3 :|
GBd G3  | FAd F3  | e2e ecA | e2e ecA |
GBd G3  | FAd F2a | aed cdB | ABG A3 :|
<end>
<start>
